X:1
T:Missionary Call, 76.76 D
T:John Henry Gower, 1911
T:Missionary Call, 76.76 D
T:Public Domain
C:John Henry Gower, 1911
Z:Public Domain
%%score ( 1 2 ) ( 3 4 )
L:1/8
M:4/4
K:D
V:1 treble 
V:2 treble 
V:3 bass 
V:4 bass 
V:1
 (DF) | A2 A2 A2 A2 | d2 d4 (DF) | [FA]2 [FA]2 [GA]2 (FE) | [FA]6 (DF) | [FA]2 [EA]2 [DA]2 [GA]2 | %6
 [Fd]2 [Fd]4 (cB) | [Ec]2 [CE]2 [DE]2 (CB,) | [CE]6 [EA]2 | E2 z e [Gc]2 [GA]2 | [Fd]2 F4 [EA]2 | %11
 [Ge]2 [Ge]2 [Gc]2 [GA]2 | [Ff]6 [Ge]2 | [Fd]2 [Ec]2 [Fd]2 [GB]2 | [DA]2 D4 (DF) | %15
 [DA]2 [DA]2 [EA]2 (DC) | D6 |] %17
V:2
 DF | A2 A2 A2 A2 | d2 d4 D2 | x6 A2 | x6 D2 | x8 | x6 F2 | x6 E2 | x8 | e3 G2 x3 | x2 F4 x2 | x8 | %12
 x8 | x8 | x2 D4 D2 | x6 A2 | D6 |] %17
V:3
 (D,F,) | A,2 A,2 A,2 A,2 | D2 D4 (CB,) | [A,D]2 [A,D]2 [A,E]2 (DC) | (D,4 D2) (CB,) | %5
 [A,D]2 [G,C]2 [F,D]2 [E,C]2 | [D,D]2 [D,A,]4 [D,A,]2 | [E,A,]2 [E,A,]2 [E,B,]2 (A,^G,) | %8
 [A,,A,]6 [A,C]2 | [A,B,]3 [A,B,] [A,C]2 (DE) | [A,D]2 [A,D]4 [A,C]2 | [A,C]2 [A,C]2 [B,D]2 [CE]2 | %12
 D6 [^A,C]2 | [B,D]2 [F,^A,]2 B,2 [G,D]2 | [F,A,]2 [B,,F,]4 [B,,F,]2 | %15
 [A,,F,]2 [A,,F,]2 [A,,G,]2 (F,E,) | [D,F,]6 |] %17
V:4
 D,F, | A,2 A,2 A,2 A,2 | D2 D4 D2 | x6 A,2 | D6 D2 | x8 | x8 | x6 E,2 | x8 | x6 A,2 | x8 | x8 | %12
 D6 x2 | x4 B,2 x2 | x8 | x6 A,,2 | x6 |] %17

